!!!OTL: Jetzt muessen wir marschieren, ich und mein Kamerad
!!!ARE: Europa, Mitteleuropa, Deutschland, Brandenburg, Berlin
!!!SCT: D0194
!!!YEM: Copyright 1995, estate of Helmut Schaffrath.
**kern
*ICvox
*Ivox
*M4/4
*k[f#c#g#]
*A:
{4e
=1
4a
4a
4b
4dd
=2
2cc#
2b}
=3
{4cc#
8b
8a
4a
4g#
=4
4a
4r
4r}
{4e
=5
4a
4a
4b
4dd
=6
2cc#
2b}
=7
{4cc#
8b
8a
4a
4g#
=8
4a
4r
4r}
{8cc#
8dd
=9
4ee
4ee
8.ee
16ee
8dd
8cc#
=10
4dd
4r
4r}
{8b
8cc#
=11
4dd
4dd
8.dd
16dd
8cc#
8b
=12
4cc#
4r
4r}
{4e
=13
4a
4a
4b
4dd
=14
2cc#
2b}
=15
{4cc#
8b
8a
4a
4g#
=16
4a
4r
4r}
==
!!!AGN: Soldaten - Lied
!! Inzipit = Transposition zum Lied, Sequenzen
!!!ONB: ESAC (Essen Associative Code) Database: DVA
!!!AMT: simple quadruple
!!!AIN: vox
!!!EED: Helmut Schaffrath
!!!EEV: 1.0
*-
